X: 1328
T: The Dublin Lasses
R:Reel
N:Collected by McFadden
B:O'Neill's 1328
Z:Transcribed by Trish O'Neil
M:C|
L:1/8
K:Dm
cF-~F2cFdF|cFFG AGG2|cF-~F2cFdF|GBAG FD-D2|
cF-~F2cFdF|cFFG AGG2|FGAc (3ded cA|GBAG FDD2||
fefg T(ag)ag|fefg adde|fefga2ag|fdec Add2|
fefg T(ag)ag|fefg addf|afgef2ed|cAGB ADD2|]


